public/img/CATEGORIES_ICONS/FASH_ICON.svg

<?xml version="1.0" encoding="UTF-8"?>
<svg width="88px" height="118px" viewBox="0 0 88 118" version="1.1" xmlns="http://www.w3.org/2000/svg" xmlns:xlink="http://www.w3.org/1999/xlink">
    <!-- Generator: Sketch 42 (36781) - http://www.bohemiancoding.com/sketch -->
    <title>FASH_ICON</title>
    <desc>Created with Sketch.</desc>
    <defs></defs>
    <g id="Page-1" stroke="none" stroke-width="1" fill="none" fill-rule="evenodd">
        <g id="Home" transform="translate(-527.000000, -1067.000000)">
            <g id="CATEGORIES" transform="translate(122.000000, 1066.000000)">
                <g id="FASH_ICON" transform="translate(405.000000, 0.982000)">
                    <polygon id="Fill-36" fill="#00B1B0" points="0.8663 25.0183 44.1673 0.0183 87.4683 25.0183 87.4683 75.0183 44.1673 100.0183 0.8663 75.0183"></polygon>
                    <path d="M68.0254,39.4114 L57.8984,29.5054 C55.8444,27.4964 53.2394,26.9914 51.9834,27.2874 C50.3934,31.3284 45.3034,31.2734 44.2624,31.2184 L44.2624,31.2054 C44.2624,31.2054 44.2274,31.2084 44.1674,31.2124 C44.1084,31.2084 44.0724,31.2054 44.0724,31.2054 L44.0724,31.2184 C43.0314,31.2734 37.9424,31.3284 36.3524,27.2874 C35.0944,26.9914 32.4904,27.4964 30.4374,29.5054 L20.3094,39.4114 C20.3094,39.4114 18.3864,41.1854 20.3094,43.5524 C22.2314,45.9174 26.5934,49.6134 26.5934,49.6134 C26.5934,49.6134 27.7024,50.4274 29.1074,48.5054 C30.5114,46.5824 31.1764,46.0654 31.1764,46.0654 L31.1764,69.8704 C31.1764,69.8704 30.8804,72.8274 33.5424,72.8274 L43.7764,72.8274 L44.5584,72.8274 L54.7924,72.8274 C57.4544,72.8274 57.1584,69.8704 57.1584,69.8704 L57.1584,46.0654 C57.1584,46.0654 57.8234,46.5824 59.2284,48.5054 C60.6334,50.4274 61.7414,49.6134 61.7414,49.6134 C61.7414,49.6134 66.1034,45.9174 68.0254,43.5524 C69.9474,41.1854 68.0254,39.4114 68.0254,39.4114" id="Fill-37" fill="#FEFEFE"></path>
                    <polygon id="Fill-38" fill="#00B1B0" points="19.177 109.0229 24.07 109.0229 24.07 110.3549 20.724 110.3549 20.724 112.7649 23.542 112.7649 23.542 114.0959 20.724 114.0959 20.724 117.5389 19.177 117.5389"></polygon>
                    <path d="M27.9831,110.4985 C27.9831,110.4985 27.7911,111.3385 27.6231,111.8175 L26.8681,114.0965 L29.0981,114.0965 L28.3431,111.8175 C28.1871,111.3385 28.0071,110.4985 28.0071,110.4985 L27.9831,110.4985 Z M29.4821,115.3555 L26.4961,115.3555 L25.7761,117.5385 L24.1811,117.5385 L27.1791,109.0225 L28.7981,109.0225 L31.7971,117.5385 L30.2021,117.5385 L29.4821,115.3555 Z" id="Fill-39" fill="#00B1B0"></path>
                    <path d="M33.0847,115.356 C33.0847,115.356 34.0077,116.255 35.2077,116.255 C35.8557,116.255 36.4427,115.919 36.4427,115.224 C36.4427,113.701 32.4247,113.964 32.4247,111.35 C32.4247,109.935 33.6477,108.879 35.2797,108.879 C36.9587,108.879 37.8217,109.791 37.8217,109.791 L37.1497,111.05 C37.1497,111.05 36.3347,110.306 35.2677,110.306 C34.5477,110.306 33.9837,110.726 33.9837,111.326 C33.9837,112.837 37.9897,112.465 37.9897,115.188 C37.9897,116.543 36.9587,117.682 35.1837,117.682 C33.2887,117.682 32.2447,116.519 32.2447,116.519 L33.0847,115.356 Z" id="Fill-40" fill="#00B1B0"></path>
                    <polygon id="Fill-41" fill="#00B1B0" points="39.5407 109.0229 41.0877 109.0229 41.0877 112.6329 44.9857 112.6329 44.9857 109.0229 46.5327 109.0229 46.5327 117.5389 44.9857 117.5389 44.9857 113.9639 41.0877 113.9639 41.0877 117.5389 39.5407 117.5389"></polygon>
                    <polygon id="Fill-42" fill="#00B1B0" points="48.697 117.539 50.244 117.539 50.244 109.023 48.697 109.023"></polygon>
                    <path d="M56.2185,116.2671 C57.7775,116.2671 59.0245,114.9721 59.0245,113.2211 C59.0245,111.5411 57.7775,110.2941 56.2185,110.2941 C54.6585,110.2941 53.4115,111.5411 53.4115,113.2211 C53.4115,114.9721 54.6585,116.2671 56.2185,116.2671 M56.2185,108.8791 C58.7245,108.8791 60.6195,110.7871 60.6195,113.2211 C60.6195,115.7281 58.7245,117.6821 56.2185,117.6821 C53.7115,117.6821 51.8165,115.7281 51.8165,113.2211 C51.8165,110.7871 53.7115,108.8791 56.2185,108.8791" id="Fill-43" fill="#00B1B0"></path>
                    <path d="M62.1965,109.0229 L63.7435,109.0229 L66.9695,113.9409 C67.2935,114.4319 67.6775,115.2599 67.6775,115.2599 L67.7015,115.2599 C67.7015,115.2599 67.6175,114.4439 67.6175,113.9409 L67.6175,109.0229 L69.1525,109.0229 L69.1525,117.5389 L67.6175,117.5389 L64.3915,112.6329 C64.0675,112.1409 63.6835,111.3139 63.6835,111.3139 L63.6595,111.3139 C63.6595,111.3139 63.7435,112.1289 63.7435,112.6329 L63.7435,117.5389 L62.1965,117.5389 L62.1965,109.0229 Z" id="Fill-44" fill="#00B1B0"></path>
                </g>
            </g>
        </g>
    </g>
</svg>

<svg width="88" height="118" viewBox="0 0 88 118" xmlns="http://www.w3.org/2000/svg"><title>FASH_ICON</title><g fill="none" fill-rule="evenodd"><path fill="#00B1B0" d="M.866 25L44.167 0l43.301 25v50l-43.3 25L.865 75z"/><path d="M68.025 39.393l-10.127-9.906c-2.054-2.009-4.659-2.514-5.915-2.218-1.59 4.041-6.68 3.986-7.72 3.931v-.013l-.096.007a6.838 6.838 0 0 1-.095-.007v.013c-1.04.055-6.13.11-7.72-3.93-1.258-.297-3.862.208-5.915 2.217L20.31 39.393s-1.923 1.774 0 4.141c1.922 2.365 6.284 6.061 6.284 6.061s1.11.814 2.514-1.108c1.404-1.923 2.07-2.44 2.07-2.44v23.805s-.297 2.957 2.365 2.957h21.25c2.662 0 2.366-2.957 2.366-2.957V46.047s.665.517 2.07 2.44c1.405 1.922 2.513 1.108 2.513 1.108s4.362-3.696 6.284-6.06c1.922-2.368 0-4.142 0-4.142" fill="#FEFEFE"/><path fill="#00B1B0" d="M19.177 109.005h4.893v1.332h-3.346v2.41h2.818v1.33h-2.818v3.444h-1.547zM27.983 110.48s-.192.84-.36 1.32l-.755 2.279h2.23l-.755-2.28c-.156-.479-.336-1.319-.336-1.319h-.024zm1.5 4.858h-2.987l-.72 2.183h-1.595l2.998-8.517h1.62l2.998 8.516h-1.595l-.72-2.182zM33.085 115.338s.923.899 2.123.899c.648 0 1.235-.336 1.235-1.031 0-1.523-4.018-1.26-4.018-3.874 0-1.415 1.223-2.471 2.855-2.471 1.679 0 2.542.912 2.542.912l-.672 1.259s-.815-.744-1.882-.744c-.72 0-1.284.42-1.284 1.02 0 1.511 4.006 1.139 4.006 3.862 0 1.355-1.031 2.494-2.806 2.494-1.895 0-2.94-1.163-2.94-1.163l.84-1.163zM39.54 109.005h1.548v3.61h3.898v-3.61h1.547v8.516h-1.547v-3.575h-3.898v3.575H39.54zM48.697 117.521h1.547v-8.516h-1.547zM56.218 116.25c1.56 0 2.806-1.296 2.806-3.047 0-1.68-1.246-2.927-2.806-2.927s-2.807 1.247-2.807 2.927c0 1.751 1.247 3.046 2.807 3.046m0-7.388c2.506 0 4.401 1.908 4.401 4.342 0 2.507-1.895 4.461-4.4 4.461-2.508 0-4.403-1.954-4.403-4.46 0-2.435 1.895-4.343 4.402-4.343M62.197 109.005h1.546l3.226 4.918c.325.49.709 1.319.709 1.319h.023s-.083-.816-.083-1.32v-4.917h1.535v8.516h-1.535l-3.227-4.906c-.324-.492-.708-1.32-.708-1.32h-.023s.084.816.084 1.32v4.906h-1.547v-8.516z"/></g></svg>
